X: 10
T: My Lord Sefoth's Scotch-measure
N: AKA "My Lord Seforth's Scotch measure"
%R: reel
B: "A Collection of Original Scotch-Tunes", Henry Playford, 1700, ed. p.4 #10 (and top staff of p.5)
F: http://imslp.org/wiki/A_Collection_of_Original_Scotch_Tunes_(Various)
Z: 2015 John Chambers <jc:trillian.mit.edu>
M: C|
L: 1/8
K: G
% - - - - - - - - - - - - - - - - - - - - - - - - - - - - -
DE |\
G3 A B3 g | dB ge dB AG |\
F2 A2 A3 B | c2 e2 e3 f |\
gd Bd g3 B | AB GA F3 D |
EFGA BcAd | B2 (AG) G2 |] Bc |\
dB GB g3 e | de cd B2 AG |\
ce gc Bd gB |
ab ga f2 (de/f/) |\
ge cg Bd gB | AB GA FA dc |\
BG Ec AF Dd | B2 (AG) G2 |]
% - - - - - - - - - - - - - - - - - - - - - - - - - - - - -

%%sep 1 1 500
%%sep 1 1 500

